X: 7409
T: Clog, The
R: slide
M: 12/8
K: Gmajor
ABA A2 G F2 G A2 B|cBc e2 d B3 B2 G|
ABA A2 G F2 G A2 B|cBc e2 d G3 G2 B:|
d2 g gag f2 e A2 B|cBc e2 d B3 B2 c|
d2 g gag f2 e A2 B|cBc edB G3 G2 B|
d2 g gag f2 e A2 B|cBc e2 d B3 B2 G|
ABA A2 G F2 G A2 B|cBc e2 d G3 G2 A||

